X:1
T:Title
%%score 1 2
L:1/8
Q:1/4=100
M:9/8
K:C
V:1 treble nm="Grand Piano, Soprano"
V:2 bass nm="Choir Pad, Pacific Palisades, 11.10.11.10"
V:1
 [EG][_E^F][=EG] [Ec]3 [EG]2 [CE] | [EG][DF][B,D] [DF]3 [CE]3 | [B,D][CE][C^F] [B,G]3 [DB]2 [GB] | %3
w: By~Daniel~Brink~Towner,~1899 * * * * *|||
 [Ac][GB][^FA] G3 [=FG]3 | [EG][_E^F][=EG] [Ec]3 [EG]2 [CE] | [EG][DF][B,D] [DF]3 [CE]3 | %6
w: |||
 [DF][DG][FA] [EG]3 [Ec]2 [Ec] | [FB][FA][FB] [Ec]6- | [Ec]3 z3 z3 |] %9
w: |||
V:2
 [C,C][C,C][C,C] [C,C]3 [C,C]2 [C,C] | [G,C][G,B,]G, [C,G,]3 [C,G,]3 | %2
 [D,^F,][D,G,][D,A,] G,3 G,2 G, | [D,D][D,D][D,C] [G,B,]6 | [C,C][C,C][C,C] [C,G,]3 [C,C]2 [C,C] | %5
 [G,C][G,B,]G, [C,G,]3 [C,G,]3 | [F,A,][F,B,][F,C] [G,C]3 G,2 G, | G,G,G, [C,G,]6- | %8
 [C,G,]3 z3 z3 |] %9

